<?xml version="1.0" encoding="UTF-8"?>
<map version="1.10" tiledversion="1.11.2" orientation="orthogonal" renderorder="right-down" width="8" height="5" tilewidth="16" tileheight="16" infinite="0" nextlayerid="4" nextobjectid="1">
 <tileset firstgid="1" source="dungeon_mini.tsx"/>
 <layer id="1" name="Calque de Tuiles 1" width="8" height="5">
  <data encoding="csv">
146,146,146,27,28,146,146,147,
146,147,146,43,44,147,146,147,
146,147,147,59,60,147,146,147,
146,147,147,146,147,147,146,147,
146,146,146,146,147,147,147,147
</data>
 </layer>
 <layer id="3" name="Calque de Tuiles 2" width="8" height="5">
  <data encoding="csv">
27,28,0,0,0,0,0,0,
43,44,0,0,0,0,0,0,
59,60,0,0,0,0,0,0,
0,0,0,0,0,0,0,0,
0,0,0,0,0,0,0,0
</data>
 </layer>
</map>
